docs/assets/images/simple-illustration__concierge-bot.svg

<svg width="68" height="68" viewBox="0 0 68 68" fill="none" xmlns="http://www.w3.org/2000/svg">
<path d="M39.1965 13.6152H32.8665L32.793 13.5627L37.1931 7.32812L39.3261 13.5693L39.1965 13.6152Z" fill="#03D47C"/>
<path d="M39.3293 13.5691L40.8507 18.0255L40.6887 18.0824C36.2864 14.0224 30.4556 17.3992 29.8008 17.8021L32.794 13.5625L32.8675 13.6151H39.1996L39.3293 13.5691Z" fill="#03D47C"/>
<path d="M40.8498 18.0256L39.3284 13.5693L37.1953 7.32812L45.5136 20.2922H41.6257L40.8498 18.0256Z" fill="#00B268"/>
<path d="M31.0237 26.0926L31.0886 25.7137C31.7823 26.0006 32.6295 26.1736 33.669 26.1824C38.6785 26.224 40.8505 22.5822 41.5766 20.8281L41.7841 20.7559L44.8292 29.6664L29.7422 29.5745L31.0237 26.0926Z" fill="#03D47C"/>
<path d="M31.0897 25.7139C28.438 24.6146 28.0727 21.8598 28.1376 20.3904L28.0273 20.3115L29.7995 17.802C30.4543 17.399 36.2829 14.02 40.6874 18.0823L40.8494 18.0253L41.6253 20.2918L41.7852 20.7561L41.5778 20.8284C40.8516 22.5824 38.6797 26.2242 33.6701 26.1826C32.6306 26.1738 31.7834 26.0008 31.0897 25.7139ZM37.9643 21.3079L34.4784 20.951L37.8195 18.9648C37.4046 18.218 36.6158 17.7363 35.6022 17.7275C33.8235 17.7144 32.0276 19.1662 31.5997 20.9729C31.1675 22.7773 32.2632 24.2533 34.0418 24.2686C35.7275 24.2818 37.424 22.9788 37.9643 21.3079Z" fill="#FFFAF0"/>
<path d="M31.0877 25.7147L31.0228 26.0935L29.7413 29.5754L21.7342 29.525L21.5938 29.4243L28.0253 20.3145L28.1355 20.3933C28.0707 21.8627 28.4359 24.6175 31.0877 25.7169V25.7147Z" fill="#03D47C"/>
<path d="M63.6784 56.0904C63.7194 57.8555 63.0603 59.4738 61.9624 60.6716L61.7852 60.5622L59.3193 58.0526L59.5074 57.7285C59.7948 57.2839 59.9569 56.7474 59.9439 56.1758C59.9093 54.6714 58.6753 53.4779 57.1906 53.5108C55.7037 53.5458 54.5259 54.7962 54.5605 56.3007C54.5778 57.0408 54.8825 57.7 55.3623 58.1796L55.332 58.208L52.4707 60.5227L52.4361 60.5534C51.4636 59.4409 50.8606 57.9891 50.826 56.3883C50.7612 53.5896 52.449 51.1632 54.8739 50.1844C55.5654 49.9041 56.3153 49.742 57.1042 49.7245C57.7417 49.7092 58.362 49.7902 58.9455 49.9544C61.6188 50.6902 63.6114 53.1385 63.6784 56.0904Z" fill="#03D47C"/>
<path d="M58.9793 49.8184L58.9404 49.9564C58.3547 49.7921 57.7345 49.7111 57.0991 49.7265C56.3103 49.744 55.5604 49.906 54.8688 50.1863L54.8169 50.0615C54.2075 47.8213 52.4591 47.3833 48.7981 47.3833C48.7981 47.3833 48.7967 47.3847 48.7938 47.3877C48.7636 47.3877 48.7355 46.3015 48.716 45.2175C48.729 44.4051 48.6858 43.4371 48.6836 43.043L51.1711 43.1065C51.8065 43.1218 52.4397 43.1853 53.0556 43.3364C56.1828 44.1029 58.3504 46.3869 58.9793 49.8184Z" fill="#5BE3AA"/>
<path d="M51.5169 29.6523L57.2418 38.5783H47.8753L44.8281 29.6655L51.4348 29.7071L51.5169 29.6523Z" fill="#00B268"/>
<path d="M45.7247 20.6171L51.5187 29.6525L51.4366 29.7072L44.83 29.6656L41.7849 20.7572L41.625 20.293H45.5129L45.5302 20.3192L45.7247 20.6171Z" fill="#00B268"/>
<path d="M48.7192 45.2141C48.7386 46.3003 48.7667 47.3842 48.797 47.3842L48.784 47.6667C48.4036 51.037 47.6429 52.7363 44.8896 54.1181L44.6389 54.2057C44.0187 54.4334 43.3141 54.5692 42.5123 54.5999C42.3935 54.6043 42.2703 54.6064 42.1471 54.6064H42.106C37.0122 54.6064 35.5664 49.0595 35.5664 43.0111V42.9585C35.99 42.9585 36.4136 42.9585 36.8328 42.9585C42.977 42.9432 48.6889 42.9476 48.6889 43.0133V43.0417C48.6889 43.0417 48.7019 44.1301 48.7235 45.2163L48.7192 45.2141Z" fill="#00B268"/>
<path d="M29.7444 29.5727L44.8314 29.6647L47.8786 38.5775L36.7574 38.6169L33.4875 38.6278L15.0508 38.6935L21.5947 29.4238L21.7352 29.5246L29.7423 29.5749L29.7444 29.5727ZM37.4857 31.8261L28.2857 31.7517C28.2857 31.7517 27.4212 36.5278 32.2103 36.5672C32.2103 36.5672 36.5585 36.9438 37.4857 31.8261Z" fill="#03D47C"/>
<path d="M42.5107 54.6077L43.0358 57.5946H30.3672L30.8923 54.6077L30.8988 54.5332C31.3959 54.5836 31.9211 54.6077 32.4678 54.6077H42.1455C42.2686 54.6077 42.3918 54.6077 42.5107 54.6011V54.6077Z" fill="#008C59"/>
<path d="M22.4472 47.356C22.1057 45.9917 21.9609 44.5179 21.9609 43.0135C21.9609 43.0135 27.5173 42.985 33.5598 42.9675C34.2255 42.9675 34.8933 42.9631 35.5632 42.9609V43.0135C35.5632 49.0619 37.009 54.6089 42.1029 54.6089H32.4663C31.9174 54.6089 31.3922 54.5848 30.8973 54.5344C25.8251 54.0417 23.3851 51.1094 22.445 47.3582L22.4472 47.356Z" fill="#03D47C"/>
<path d="M41.3209 57.5938V60.1844H37.5022H36.869H32.082V57.5938H32.1101H36.9814H37.392H41.2929H41.3209Z" fill="#085239"/>
<path d="M34.4768 20.9521L37.9627 21.309C37.4203 22.9799 35.726 24.2829 34.0403 24.2697C32.2616 24.2544 31.1659 22.7806 31.5982 20.974C32.0282 19.1695 33.822 17.7155 35.6006 17.7286C36.6163 17.7374 37.403 18.2191 37.8179 18.9659L34.4768 20.9521Z" fill="#002140"/>
<path d="M28.2835 31.752L37.4835 31.8264C36.5564 36.9441 32.2081 36.5675 32.2081 36.5675C27.419 36.5281 28.2835 31.752 28.2835 31.752Z" fill="#002140"/>
<path d="M36.8277 42.6621V42.9577C36.4084 42.9577 35.9848 42.9577 35.5612 42.9577C34.8913 42.9577 34.2235 42.9621 33.5579 42.9643V42.7563L33.4844 38.7291V38.6262L36.7542 38.6152V38.6284L36.8277 42.6599V42.6621Z" fill="#008C59"/>
<path d="M22.4469 47.3576H19.3218L16.83 47.2941C16.1968 47.2766 15.5614 47.2131 14.9455 47.062C11.2046 46.1466 8.83594 43.0589 8.83594 38.4295V24.4647L8.87268 24.2129C9.51454 24.4122 10.1953 24.5129 10.902 24.4954C11.4596 24.4822 11.9977 24.399 12.5077 24.2501L12.6871 24.8501V37.3368C12.6871 41.9027 14.0357 43.0151 18.9177 43.0151H21.9606C21.9606 44.5174 22.1054 45.9911 22.4469 47.3554V47.3576Z" fill="#5BE3AA"/>
<path d="M17.1843 17.8322C17.2513 20.8652 15.263 23.4624 12.5097 24.2507C11.9975 24.3996 11.4594 24.4828 10.904 24.496C10.1973 24.5135 9.51652 24.4128 8.87466 24.2135C6.29425 23.4142 4.3946 21.0141 4.32976 18.1322C4.29086 16.3672 4.94785 14.7467 6.04571 13.5488L6.22509 13.6583L8.6888 16.1679L8.50294 16.492C8.21335 16.9387 8.05126 17.4731 8.06423 18.0446C8.09881 19.5491 9.33282 20.7447 10.8175 20.7097C12.3044 20.6747 13.4822 19.4242 13.4477 17.9198C13.4304 17.184 13.1278 16.5227 12.648 16.0431L12.6761 16.0124L15.5375 13.6977L15.5721 13.6671C16.5446 14.7795 17.1475 16.2314 17.1843 17.8322Z" fill="#03D47C"/>
<path d="M21.5947 29.4217L15.0508 38.6936L33.4854 38.6279L36.7552 38.617L47.8765 38.5776L44.8293 29.6648L41.7842 20.7564L41.6243 20.2922L40.8484 18.0256L39.327 13.5693L37.1939 7.32812L32.7938 13.5627L29.8006 17.8023L28.0263 20.3119L21.5947 29.4217Z" stroke="#002140" stroke-linecap="round" stroke-linejoin="round"/>
<path d="M41.5742 20.293H41.6218H45.5097H45.5162" stroke="#002140" stroke-linecap="round" stroke-linejoin="round"/>
<path d="M28.1356 20.3906C28.0708 21.86 28.436 24.6149 31.0877 25.7142C31.7814 26.0011 32.6286 26.1741 33.6681 26.1828C38.6777 26.2244 40.8496 22.5827 41.5758 20.8286" stroke="#002140" stroke-linecap="round" stroke-linejoin="round"/>
<path d="M29.7383 17.8392C29.7383 17.8392 29.7599 17.826 29.7988 17.802C30.4536 17.399 36.2822 14.02 40.6867 18.0823" stroke="#002140" stroke-linecap="round" stroke-linejoin="round"/>
<path d="M34.0363 24.2658C35.722 24.279 37.4185 22.976 37.9588 21.3051L34.4729 20.9482L37.814 18.962C37.3991 18.2152 36.6103 17.7335 35.5967 17.7247C33.8181 17.7116 32.0222 19.1634 31.5942 20.9701C31.162 22.7745 32.2577 24.2505 34.0363 24.2658Z" stroke="#002140" stroke-width="0.333333" stroke-linecap="round" stroke-linejoin="round"/>
<path d="M21.7344 29.5215L29.7414 29.5719L44.8284 29.6638L51.4351 29.7054" stroke="#002140" stroke-linecap="round" stroke-linejoin="round"/>
<path d="M29.7383 29.5822L29.7426 29.5735L31.0242 26.0938" stroke="#002140" stroke-linecap="round" stroke-linejoin="round"/>
<path d="M36.8398 29.5866L36.8658 26.0938" stroke="#002140" stroke-linecap="round" stroke-linejoin="round"/>
<path d="M37.4835 31.8264L28.2835 31.752C28.2835 31.752 27.419 36.5281 32.2081 36.5675C32.2081 36.5675 36.5564 36.9441 37.4835 31.8264Z" stroke="#002140" stroke-linecap="round" stroke-linejoin="round"/>
<path d="M45.527 20.3184L45.5097 20.2922L37.1914 7.32812" stroke="#002140" stroke-linecap="round" stroke-linejoin="round"/>
<path d="M47.8752 38.5785H57.2416L51.5167 29.6526L45.7227 20.6172" stroke="#002140" stroke-linecap="round" stroke-linejoin="round"/>
<path d="M33.4844 38.7305L33.5579 42.7576" stroke="#002140" stroke-linecap="round" stroke-linejoin="round"/>
<path d="M36.7539 38.6309L36.8274 42.6624" stroke="#002140" stroke-linecap="round" stroke-linejoin="round"/>
<path d="M8.83594 24.4629V38.4277C8.83594 43.0549 11.2046 46.1448 14.9455 47.0602C15.5636 47.2113 16.199 47.2748 16.83 47.2923L19.3218 47.3558H22.4641" stroke="#002140" stroke-linecap="round" stroke-linejoin="round"/>
<path d="M12.6836 24.8496V37.3362C12.6836 41.9021 14.0322 43.0146 18.9142 43.0146H21.6048" stroke="#002140" stroke-linecap="round" stroke-linejoin="round"/>
<path d="M15.5682 13.6671C16.5407 14.7795 17.1436 16.2314 17.1804 17.8322C17.2474 20.8652 15.2591 23.4624 12.5058 24.2507C11.9936 24.3996 11.4555 24.4828 10.9001 24.496C10.1934 24.5135 9.51261 24.4128 8.87075 24.2135C6.29034 23.4142 4.39069 21.0141 4.32586 18.1322C4.28695 16.3672 4.94394 14.7467 6.04181 13.5488" stroke="#002140" stroke-linecap="round" stroke-linejoin="round"/>
<path d="M12.6146 16.0117L12.647 16.0446C13.1268 16.5241 13.4294 17.1877 13.4466 17.9213C13.4812 19.4257 12.3034 20.6761 10.8165 20.7112C9.33182 20.7462 8.0978 19.5505 8.06322 18.0461C8.05026 17.4724 8.21234 16.938 8.50194 16.4935" stroke="#002140" stroke-linecap="round" stroke-linejoin="round"/>
<path d="M12.6719 16.0139L15.5332 13.6992" stroke="#002140" stroke-linecap="round" stroke-linejoin="round"/>
<path d="M8.68637 16.1678L6.22266 13.6582" stroke="#002140" stroke-linecap="round" stroke-linejoin="round"/>
<path d="M58.9793 49.8184C58.3504 46.3847 56.1828 44.1007 53.0556 43.3364C52.4375 43.1853 51.8043 43.1218 51.1711 43.1065L48.6836 43.043C48.6836 43.043 48.6966 44.1313 48.7182 45.2175C48.7376 46.3037 48.7657 47.3877 48.796 47.3877C48.796 47.3877 48.7974 47.3862 48.8003 47.3833C52.4613 47.3833 54.2097 47.8213 54.8191 50.0615" stroke="#002140" stroke-linecap="round" stroke-linejoin="round"/>
<path d="M52.4322 60.5534C51.4597 59.4409 50.8567 57.9891 50.8221 56.3883C50.7573 53.5896 52.4451 51.1632 54.87 50.1844C55.5615 49.9041 56.3114 49.742 57.1003 49.7245C57.7378 49.7092 58.358 49.7902 58.9416 49.9544C61.6149 50.6902 63.6075 53.1385 63.6745 56.0904C63.7155 57.8555 63.0564 59.4738 61.9585 60.6716" stroke="#002140" stroke-linecap="round" stroke-linejoin="round"/>
<path d="M55.3875 58.2099C55.3875 58.2099 55.3659 58.1902 55.3572 58.1792C54.8774 57.6997 54.5727 57.0383 54.5554 56.3003C54.5209 54.7959 55.6987 53.5455 57.1856 53.5104C58.6703 53.4776 59.9043 54.6711 59.9389 56.1755C59.9518 56.7492 59.7897 57.2858 59.5023 57.7281" stroke="#002140" stroke-linecap="round" stroke-linejoin="round"/>
<path d="M55.3262 58.207L52.4648 60.5217" stroke="#002140" stroke-linecap="round" stroke-linejoin="round"/>
<path d="M59.3125 58.0527L61.7784 60.5623" stroke="#002140" stroke-linecap="round" stroke-linejoin="round"/>
<path d="M48.6948 45.7355C48.7034 45.5757 48.7099 45.3983 48.7142 45.2143C48.7272 44.4019 48.684 43.434 48.6818 43.0398V43.0113C48.6818 42.9456 42.9677 42.9412 36.8257 42.9566C36.4065 42.9566 35.9829 42.9566 35.5593 42.9566C34.8894 42.9566 34.2216 42.961 33.5559 42.9631C27.5112 42.9807 21.957 43.0091 21.957 43.0091C21.957 44.5136 22.1018 45.9874 22.4433 47.3516C23.3834 51.1051 25.8233 54.0351 30.8955 54.5278C31.3926 54.5782 31.9178 54.6023 32.4645 54.6023H42.1422" stroke="#002140" stroke-linecap="round" stroke-linejoin="round"/>
<path d="M42.1445 54.6078C42.2677 54.6078 42.3909 54.6078 42.5098 54.6012C43.3116 54.5705 44.0161 54.4348 44.6363 54.207" stroke="#002140" stroke-linecap="round" stroke-linejoin="round"/>
<path d="M42.1021 54.6071C37.0083 54.6071 35.5625 49.0601 35.5625 43.0117" stroke="#002140" stroke-linecap="round" stroke-linejoin="round"/>
<path d="M30.8902 54.6074L30.3672 57.5944H32.081H32.1091H36.9803" stroke="#002140" stroke-linecap="round" stroke-linejoin="round"/>
<path d="M36.8651 60.1844H32.0781V57.5938" stroke="#002140" stroke-linecap="round" stroke-linejoin="round"/>
<path d="M42.5108 54.6074L43.036 57.5944H41.3201H41.292H37.3911H36.9805" stroke="#002140" stroke-linecap="round" stroke-linejoin="round"/>
<path d="M36.8672 60.1844H37.5004H41.3192V57.5938" stroke="#002140" stroke-linecap="round" stroke-linejoin="round"/>
<path d="M44.8867 54.1193C47.6422 52.7397 48.4029 51.0382 48.7811 47.668" stroke="#002140" stroke-linecap="round" stroke-linejoin="round"/>
<path d="M32.8672 13.6152H39.1972" stroke="#002140" stroke-linecap="round" stroke-linejoin="round"/>
</svg>

<?xml version="1.0" encoding="UTF-8"?>
<svg id="Layer_1" xmlns="http://www.w3.org/2000/svg" version="1.1" viewBox="0 0 68 68">
  <!-- Generator: Adobe Illustrator 29.8.2, SVG Export Plug-In . SVG Version: 2.1.1 Build 3)  -->
  <path d="M39.2,13.62h-6.33l-.07-.05,4.4-6.23,2.13,6.24-.13.05Z" fill="#03d47c"/>
  <path d="M39.33,13.57l1.52,4.46-.16.06c-4.4-4.06-10.23-.68-10.89-.28l2.99-4.24.07.05h6.33l.13-.05Z" fill="#03d47c"/>
  <path d="M40.85,18.03l-1.52-4.46-2.13-6.24,8.32,12.96h-3.89l-.78-2.27Z" fill="#00b268"/>
  <path d="M31.02,26.09l.06-.38c.69.29,1.54.46,2.58.47,5.01.04,7.18-3.6,7.91-5.35l.21-.07,3.05,8.91-15.09-.09,1.28-3.48Z" fill="#03d47c"/>
  <path d="M31.09,25.71c-2.65-1.1-3.02-3.85-2.95-5.32l-.11-.08,1.77-2.51c.65-.4,6.48-3.78,10.89.28l.16-.06.78,2.27.16.46-.21.07c-.73,1.75-2.9,5.4-7.91,5.35-1.04,0-1.89-.18-2.58-.47ZM37.96,21.31l-3.49-.36,3.34-1.99c-.42-.75-1.2-1.23-2.22-1.24-1.78-.01-3.57,1.44-4,3.25-.43,1.8.66,3.28,2.44,3.3,1.69.01,3.38-1.29,3.92-2.96Z" fill="#fffaf0"/>
  <path d="M31.09,25.71l-.06.38-1.28,3.48-8.01-.05-.14-.1,6.43-9.11.11.08c-.06,1.47.3,4.22,2.95,5.32h0Z" fill="#03d47c"/>
  <path d="M63.68,56.09c.04,1.77-.62,3.38-1.72,4.58l-.18-.11-2.47-2.51.19-.32c.29-.44.45-.98.44-1.55-.03-1.5-1.27-2.7-2.75-2.67-1.49.04-2.66,1.29-2.63,2.79.02.74.32,1.4.8,1.88l-.03.03-2.86,2.31-.03.03c-.97-1.11-1.58-2.56-1.61-4.17-.06-2.8,1.62-5.23,4.05-6.2.69-.28,1.44-.44,2.23-.46.64-.02,1.26.07,1.84.23,2.67.74,4.67,3.18,4.73,6.14Z" fill="#03d47c"/>
  <path d="M58.98,49.82l-.04.14c-.59-.16-1.21-.25-1.84-.23-.79.02-1.54.18-2.23.46l-.05-.12c-.61-2.24-2.36-2.68-6.02-2.68,0,0,0,0,0,0-.03,0-.06-1.09-.08-2.17.01-.81-.03-1.78-.03-2.17l2.49.06c.64.02,1.27.08,1.88.23,3.13.77,5.29,3.05,5.92,6.48Z" fill="#5be3aa"/>
  <path d="M51.52,29.65l5.72,8.93h-9.37l-3.05-8.91,6.61.04.08-.05Z" fill="#00b268"/>
  <path d="M45.72,20.62l5.79,9.04-.08.05-6.61-.04-3.04-8.91-.16-.46h3.89l.02.03.19.3Z" fill="#00b268"/>
  <path d="M48.72,45.22c.02,1.09.05,2.17.08,2.17v.28c-.39,3.37-1.15,5.07-3.91,6.45l-.25.09c-.62.23-1.32.36-2.13.39-.12,0-.24,0-.37,0h-.04c-5.09,0-6.54-5.55-6.54-11.6v-.05h1.27c6.14-.02,11.86-.01,11.86.05v.03s.01,1.09.03,2.17h0Z" fill="#00b268"/>
  <path d="M29.74,29.57l15.09.09,3.05,8.91-11.12.04h-3.27s-18.44.08-18.44.08l6.54-9.27.14.1,8.01.05h0ZM37.48,31.83l-9.2-.07s-.86,4.78,3.92,4.82c0,0,4.35.38,5.28-4.74Z" fill="#03d47c"/>
  <path d="M42.51,54.61l.53,2.99h-12.67l.53-2.99v-.07c.5.05,1.03.07,1.58.07h9.68c.12,0,.25,0,.37,0h0Z" fill="#008c59"/>
  <path d="M22.44,47.36c-.34-1.36-.49-2.84-.49-4.34,0,0,5.56-.03,11.6-.05.67,0,1.33,0,2,0v.05c0,6.05,1.45,11.6,6.54,11.6h-9.64c-.55,0-1.07-.02-1.57-.07-5.07-.49-7.51-3.42-8.45-7.18h0Z" fill="#03d47c"/>
  <path d="M41.32,57.59v2.59h-9.24v-2.59h9.24Z" fill="#085239"/>
  <path d="M34.48,20.95l3.49.36c-.54,1.67-2.24,2.97-3.92,2.96-1.78-.02-2.87-1.49-2.44-3.3.43-1.8,2.22-3.26,4-3.25,1.02,0,1.8.49,2.22,1.24l-3.34,1.99Z" fill="#002140"/>
  <path d="M28.28,31.75l9.2.07c-.93,5.12-5.28,4.74-5.28,4.74-4.79-.04-3.92-4.82-3.92-4.82Z" fill="#002140"/>
  <path d="M36.83,42.66v.3h-1.27c-.67,0-1.34,0-2,0v-.21l-.07-4.03v-.1h3.27s0,0,0,0l.07,4.03h0Z" fill="#008c59"/>
  <path d="M22.44,47.36h-3.12l-2.49-.06c-.63-.02-1.27-.08-1.88-.23-3.74-.92-6.11-4-6.11-8.63v-13.96l.04-.25c.64.2,1.32.3,2.03.28.56-.01,1.1-.1,1.61-.25l.18.6v12.49c0,4.57,1.35,5.68,6.23,5.68h3.04c0,1.5.14,2.98.49,4.34h0Z" fill="#5be3aa"/>
  <path d="M17.18,17.83c.07,3.03-1.92,5.63-4.67,6.42-.51.15-1.05.23-1.61.25-.71.02-1.39-.08-2.03-.28-2.58-.8-4.48-3.2-4.54-6.08-.04-1.76.62-3.39,1.72-4.58l.18.11,2.46,2.51-.19.32c-.29.45-.45.98-.44,1.55.03,1.5,1.27,2.7,2.75,2.67,1.49-.04,2.66-1.29,2.63-2.79-.02-.74-.32-1.4-.8-1.88l.03-.03,2.86-2.31.03-.03c.97,1.11,1.58,2.56,1.61,4.17Z" fill="#03d47c"/>
  <path d="M21.59,29.42l-6.54,9.27,18.43-.07h3.27s11.12-.05,11.12-.05l-3.05-8.91-3.05-8.91-.16-.46-.78-2.27-1.52-4.46-2.13-6.24-4.4,6.23-2.99,4.24-1.77,2.51-6.43,9.11Z" fill="none" stroke="#002140" stroke-linecap="round" stroke-linejoin="round"/>
  <path d="M41.58,20.29h3.94" fill="none" stroke="#002140" stroke-linecap="round" stroke-linejoin="round"/>
  <path d="M28.14,20.39c-.06,1.47.3,4.22,2.95,5.32.69.29,1.54.46,2.58.47,5.01.04,7.18-3.6,7.91-5.35" fill="none" stroke="#002140" stroke-linecap="round" stroke-linejoin="round"/>
  <path d="M29.74,17.84s.02-.01.06-.04c.65-.4,6.48-3.78,10.89.28" fill="none" stroke="#002140" stroke-linecap="round" stroke-linejoin="round"/>
  <path d="M34.04,24.27c1.69.01,3.38-1.29,3.92-2.96l-3.49-.36,3.34-1.99c-.41-.75-1.2-1.23-2.22-1.24-1.78-.01-3.57,1.44-4,3.25-.43,1.8.66,3.28,2.44,3.3Z" fill="none" stroke="#002140" stroke-linecap="round" stroke-linejoin="round" stroke-width=".33"/>
  <path d="M21.73,29.52l8.01.05,15.09.09,6.61.04" fill="none" stroke="#002140" stroke-linecap="round" stroke-linejoin="round"/>
  <path d="M29.74,29.58h0s1.28-3.49,1.28-3.49" fill="none" stroke="#002140" stroke-linecap="round" stroke-linejoin="round"/>
  <path d="M36.84,29.59l.03-3.49" fill="none" stroke="#002140" stroke-linecap="round" stroke-linejoin="round"/>
  <path d="M37.48,31.83l-9.2-.07s-.86,4.78,3.92,4.82c0,0,4.35.38,5.28-4.74Z" fill="none" stroke="#002140" stroke-linecap="round" stroke-linejoin="round"/>
  <path d="M45.53,20.32l-.02-.03-8.32-12.96" fill="none" stroke="#002140" stroke-linecap="round" stroke-linejoin="round"/>
  <path d="M47.88,38.58h9.37l-5.72-8.93-5.79-9.04" fill="none" stroke="#002140" stroke-linecap="round" stroke-linejoin="round"/>
  <path d="M33.48,38.73l.07,4.03" fill="none" stroke="#002140" stroke-linecap="round" stroke-linejoin="round"/>
  <path d="M36.75,38.63l.07,4.03" fill="none" stroke="#002140" stroke-linecap="round" stroke-linejoin="round"/>
  <path d="M8.83,24.46v13.96c0,4.63,2.37,7.72,6.11,8.63.62.15,1.25.21,1.88.23l2.49.06h3.14" fill="none" stroke="#002140" stroke-linecap="round" stroke-linejoin="round"/>
  <path d="M12.69,24.85v12.49c0,4.57,1.35,5.68,6.23,5.68h2.69" fill="none" stroke="#002140" stroke-linecap="round" stroke-linejoin="round"/>
  <path d="M15.57,13.67c.97,1.11,1.58,2.56,1.61,4.17.07,3.03-1.92,5.63-4.67,6.42-.51.15-1.05.23-1.61.25-.71.02-1.39-.08-2.03-.28-2.58-.8-4.48-3.2-4.54-6.08-.04-1.76.62-3.39,1.72-4.58" fill="none" stroke="#002140" stroke-linecap="round" stroke-linejoin="round"/>
  <path d="M12.61,16.01l.03.03c.48.48.78,1.14.8,1.88.03,1.5-1.14,2.75-2.63,2.79-1.48.03-2.72-1.16-2.75-2.67-.01-.57.15-1.11.44-1.55" fill="none" stroke="#002140" stroke-linecap="round" stroke-linejoin="round"/>
  <path d="M12.67,16.01l2.86-2.31" fill="none" stroke="#002140" stroke-linecap="round" stroke-linejoin="round"/>
  <path d="M8.68,16.17l-2.46-2.51" fill="none" stroke="#002140" stroke-linecap="round" stroke-linejoin="round"/>
  <path d="M58.98,49.82c-.63-3.43-2.8-5.72-5.92-6.48-.62-.15-1.25-.21-1.88-.23l-2.49-.06s.01,1.09.03,2.17c.02,1.09.05,2.17.08,2.17,0,0,0,0,0,0,3.66,0,5.41.44,6.02,2.68" fill="none" stroke="#002140" stroke-linecap="round" stroke-linejoin="round"/>
  <path d="M52.43,60.55c-.97-1.11-1.58-2.56-1.61-4.17-.06-2.8,1.62-5.23,4.05-6.2.69-.28,1.44-.44,2.23-.46.64-.02,1.26.07,1.84.23,2.67.74,4.67,3.18,4.73,6.14.04,1.77-.62,3.38-1.72,4.58" fill="none" stroke="#002140" stroke-linecap="round" stroke-linejoin="round"/>
  <path d="M55.39,58.21s-.02-.02-.03-.03c-.48-.48-.78-1.14-.8-1.88-.03-1.5,1.14-2.75,2.63-2.79,1.48-.03,2.72,1.16,2.75,2.67.01.57-.15,1.11-.44,1.55" fill="none" stroke="#002140" stroke-linecap="round" stroke-linejoin="round"/>
  <path d="M55.33,58.21l-2.86,2.31" fill="none" stroke="#002140" stroke-linecap="round" stroke-linejoin="round"/>
  <path d="M59.31,58.05l2.47,2.51" fill="none" stroke="#002140" stroke-linecap="round" stroke-linejoin="round"/>
  <path d="M48.7,45.74c0-.16.02-.34.02-.52.01-.81-.03-1.78-.03-2.17v-.03c0-.07-5.71-.07-11.86-.05h-1.27c-.67,0-1.34,0-2,0-6.04.02-11.6.05-11.6.05,0,1.5.14,2.98.49,4.34.94,3.75,3.38,6.68,8.45,7.18.5.05,1.02.07,1.57.07h9.68" fill="none" stroke="#002140" stroke-linecap="round" stroke-linejoin="round"/>
  <path d="M42.14,54.61c.12,0,.25,0,.37,0,.8-.03,1.51-.17,2.13-.39" fill="none" stroke="#002140" stroke-linecap="round" stroke-linejoin="round"/>
  <path d="M42.1,54.61c-5.09,0-6.54-5.55-6.54-11.6" fill="none" stroke="#002140" stroke-linecap="round" stroke-linejoin="round"/>
  <path d="M30.89,54.61l-.52,2.99h6.61" fill="none" stroke="#002140" stroke-linecap="round" stroke-linejoin="round"/>
  <path d="M36.87,60.19h-4.79v-2.59" fill="none" stroke="#002140" stroke-linecap="round" stroke-linejoin="round"/>
  <path d="M42.51,54.61l.53,2.99h-6.06" fill="none" stroke="#002140" stroke-linecap="round" stroke-linejoin="round"/>
  <path d="M36.87,60.19h4.45v-2.59" fill="none" stroke="#002140" stroke-linecap="round" stroke-linejoin="round"/>
  <path d="M44.89,54.12c2.76-1.38,3.52-3.08,3.89-6.45" fill="none" stroke="#002140" stroke-linecap="round" stroke-linejoin="round"/>
  <path d="M32.87,13.62h6.33" fill="none" stroke="#002140" stroke-linecap="round" stroke-linejoin="round"/>
</svg>
